src/pos-icons/forum-outline.svg

<svg height="24" viewBox="0 0 24 24" width="24" xmlns="http://www.w3.org/2000/svg"><path d="m15 4v7h-9.83l-1.17 1.17v-8.17zm1-2h-13a1 1 0 0 0 -1 1v14l4-4h10a1 1 0 0 0 1-1v-9a1 1 0 0 0 -1-1m5 4h-2v9h-13v2a1 1 0 0 0 1 1h11l4 4v-15a1 1 0 0 0 -1-1z"/></svg>

<?xml version="1.0" encoding="UTF-8"?><!DOCTYPE svg PUBLIC "-//W3C//DTD SVG 1.1//EN" "http://www.w3.org/Graphics/SVG/1.1/DTD/svg11.dtd"><svg xmlns="http://www.w3.org/2000/svg" xmlns:xlink="http://www.w3.org/1999/xlink" version="1.1" id="mdi-forum-outline" width="24" height="24" viewBox="0 0 24 24"><path d="M15,4V11H5.17L4,12.17V4H15M16,2H3A1,1 0 0,0 2,3V17L6,13H16A1,1 0 0,0 17,12V3A1,1 0 0,0 16,2M21,6H19V15H6V17A1,1 0 0,0 7,18H18L22,22V7A1,1 0 0,0 21,6Z" /></svg>
